img/search.svg

<svg width="20" height="20" viewBox="0 0 20 20" fill="none" xmlns="http://www.w3.org/2000/svg">
<path d="M15.0257 13.8476L18.5948 17.4159L17.4157 18.5951L13.8473 15.0259C12.5196 16.0903 10.8682 16.6692 9.1665 16.6667C5.0265 16.6667 1.6665 13.3067 1.6665 9.16675C1.6665 5.02675 5.0265 1.66675 9.1665 1.66675C13.3065 1.66675 16.6665 5.02675 16.6665 9.16675C16.6689 10.8684 16.09 12.5199 15.0257 13.8476ZM13.354 13.2292C14.4116 12.1417 15.0022 10.6838 14.9998 9.16675C14.9998 5.94341 12.389 3.33341 9.1665 3.33341C5.94317 3.33341 3.33317 5.94341 3.33317 9.16675C3.33317 12.3892 5.94317 15.0001 9.1665 15.0001C10.6835 15.0025 12.1414 14.4118 13.229 13.3542L13.354 13.2292Z" fill="#B8B8B8"/>
</svg>

<svg width="20" height="20" fill="none" xmlns="http://www.w3.org/2000/svg"><path d="M15.026 13.848l3.569 3.568-1.18 1.18-3.568-3.57a7.466 7.466 0 01-4.68 1.64c-4.14 0-7.5-3.36-7.5-7.5 0-4.14 3.36-7.5 7.5-7.5 4.14 0 7.5 3.36 7.5 7.5a7.467 7.467 0 01-1.641 4.682zm-1.672-.619A5.814 5.814 0 0015 9.167a5.832 5.832 0 00-5.834-5.834 5.831 5.831 0 00-5.833 5.834A5.832 5.832 0 009.166 15a5.814 5.814 0 004.063-1.646l.125-.125z" fill="#B8B8B8"/></svg>
